X:1
T:Längtan efter Sally
R:Vals
C:Bruce Sagan
Z:ABC-transkribering av Bruce Sagan
M:3/4
L:1/8
K:Gmix
D2 | G4 B2 | d4 f2  | e2 ed ce | d4 B2 | c2 cB Ac | B2 BA GB | AB AG ^FE | D4 D2 |
G4 B2 | d4 f2  | e2 ed ce | d4 B2 | c2 cB Ac | B2 BA GB | AB AD FA |1 G4 :|2 G4 d2 |:
g3 a g2 | f3 g f2 | e2 ed ce | d4 B2 | c2 cB Ac | B2 BA GB | A2 d2 e2 | ^f3 e d2 |
g2 ga g2 | f2 fg f2 | e2 ed ce | d4 B2 | c2 cB Ac | B2 BA GB | AB AD FA |1 G4 d2 :|2 G4 |]

